svgs/sharp-light/slider.svg

<svg xmlns="http://www.w3.org/2000/svg" viewBox="0 0 512 512"><!--! Font Awesome Pro 6.6.0 by @fontawesome - https://fontawesome.com License - https://fontawesome.com/license (Commercial License) Copyright 2024 Fonticons, Inc. --><path d="M384 128l0 256-96 0 0-256 96 0zM288 96l-32 0 0 32 0 256 0 32 32 0 96 0 32 0 0-32 0-112 80 0 16 0 0-32-16 0-80 0 0-112 0-32-32 0-96 0zM0 272l16 0 208 0 0-32L16 240 0 240l0 32z"/></svg>

<svg xmlns="http://www.w3.org/2000/svg" viewBox="0 0 512 512"><!--! Font Awesome Pro 6.4.2 by @fontawesome - https://fontawesome.com License - https://fontawesome.com/license (Commercial License) Copyright 2023 Fonticons, Inc. --><path d="M384 128V384H288V128h96zM288 96H256v32V384v32h32 96 32V384 272h80 16V240H496 416V128 96H384 288zM0 272H16 224V240H16 0v32z"/></svg>
